frontend/src/assets/sensibullLogo.svg

<svg width="103" height="18" viewBox="0 0 103 18" fill="none" xmlns="http://www.w3.org/2000/svg">
<path d="M1 3.68998C1 1.65206 2.65206 0 4.68998 0H15.0219C17.0598 0 18.7119 1.65206 18.7119 3.68998V14.0219C18.7119 16.0598 17.0598 17.7119 15.0219 17.7119H4.68998C2.65206 17.7119 1 16.0598 1 14.0219V3.68998Z" fill="white"/>
<path d="M4.54238 0C2.58598 0 1 1.58598 1 3.54238V4.87077H5.34818C5.77702 4.87077 6.15774 5.14517 6.29335 5.552L8.28025 11.5127H11.4316L13.4185 5.55201C13.5541 5.14518 13.9349 4.87077 14.3637 4.87077H18.7119V3.54238C18.7119 1.58598 17.1259 0 15.1695 0H4.54238Z" fill="#FF5722"/>
<path d="M18.7119 6.64196H14.9222L12.9353 12.6027C12.7997 13.0095 12.419 13.2839 11.9901 13.2839H7.72174C7.29291 13.2839 6.91218 13.0095 6.77658 12.6027L4.78967 6.64196H1V14.1695C1 16.1259 2.58598 17.7119 4.54238 17.7119H15.1695C17.1259 17.7119 18.7119 16.1259 18.7119 14.1695V6.64196Z" fill="#FF5722"/>
<path d="M26.8034 16.2359C26.5239 16.2359 26.2238 16.2254 25.903 16.2044C25.5925 16.1939 25.2717 16.1729 24.9406 16.1414C24.6197 16.0995 24.3144 16.0627 24.0247 16.0312C23.7349 15.9892 23.4762 15.942 23.2485 15.8895V14.3624C23.5383 14.3834 23.8746 14.4044 24.2575 14.4254C24.6508 14.4463 25.0596 14.4621 25.4839 14.4726C25.9082 14.4831 26.317 14.4883 26.7102 14.4883C27.1242 14.4883 27.4916 14.4516 27.8124 14.3781C28.1332 14.2942 28.3816 14.1525 28.5575 13.953C28.7335 13.7536 28.8214 13.4702 28.8214 13.1029V12.5518C28.8214 12.1425 28.7076 11.8276 28.4799 11.6072C28.2522 11.3868 27.9159 11.2766 27.4709 11.2766H26.3998C25.3545 11.2766 24.5473 11.0457 23.9781 10.5838C23.4193 10.122 23.1398 9.32958 23.1398 8.20651V7.60824C23.1398 6.48518 23.4451 5.67699 24.0557 5.18369C24.6767 4.67988 25.5615 4.42798 26.7102 4.42798C27.1035 4.42798 27.5071 4.44897 27.9211 4.49095C28.3454 4.52244 28.749 4.56443 29.1319 4.6169C29.5148 4.66938 29.8408 4.72711 30.1099 4.79009V6.31725C29.6545 6.28576 29.1319 6.25427 28.542 6.22278C27.9625 6.19129 27.4243 6.17555 26.9276 6.17555C26.5343 6.17555 26.1876 6.21753 25.8875 6.3015C25.5874 6.38547 25.3597 6.53766 25.2045 6.75807C25.0492 6.96799 24.9716 7.28287 24.9716 7.70271V8.08056C24.9716 8.57387 25.101 8.92024 25.3597 9.11966C25.6288 9.31908 26.0117 9.41879 26.5084 9.41879H27.7037C28.3764 9.41879 28.9301 9.54474 29.3647 9.79665C29.7994 10.0485 30.1202 10.3949 30.3272 10.8357C30.5445 11.2661 30.6532 11.7594 30.6532 12.3157V13.0556C30.6532 13.9163 30.4876 14.5775 30.1564 15.0394C29.8253 15.5012 29.3699 15.8161 28.7904 15.984C28.2108 16.1519 27.5485 16.2359 26.8034 16.2359Z" fill="#525E72"/>
<path d="M35.1544 16.2202C34.906 16.2202 34.6266 16.1939 34.3161 16.1414C34.016 16.0995 33.7262 15.9997 33.4468 15.8423C33.1674 15.6744 32.9397 15.4277 32.7638 15.1023C32.5878 14.777 32.4999 14.3309 32.4999 13.7641V7.05721C32.4999 6.5639 32.5723 6.15456 32.7172 5.82918C32.8621 5.49331 33.0535 5.23092 33.2916 5.04199C33.5399 4.85306 33.809 4.72186 34.0988 4.64839C34.3989 4.56443 34.6939 4.52244 34.9836 4.52244C35.7081 4.52244 36.36 4.53294 36.9396 4.55393C37.5191 4.57492 38.0469 4.59591 38.523 4.6169C39.0094 4.6379 39.4596 4.66414 39.8735 4.69562V6.31725H35.5425C35.1906 6.31725 34.9112 6.40646 34.7042 6.58489C34.5076 6.76332 34.4093 7.04146 34.4093 7.41932V9.48177L39.175 9.59198V11.1191L34.4093 11.2293V13.2288C34.4093 13.5437 34.461 13.7851 34.5645 13.953C34.6783 14.121 34.818 14.2364 34.9836 14.2994C35.1596 14.3624 35.3407 14.3939 35.5269 14.3939H39.8735V16.0155C39.4182 16.0575 38.9214 16.0942 38.3833 16.1257C37.8451 16.1467 37.2966 16.1624 36.7378 16.1729C36.1893 16.1939 35.6615 16.2097 35.1544 16.2202Z" fill="#525E72"/>
<path d="M41.8411 16.1414V4.52244H43.3779L48.5938 12.8195V4.52244H50.5187V16.1414H48.9819L43.766 7.8444V16.1414H41.8411Z" fill="#525E72"/>
<path d="M55.925 16.2359C55.6456 16.2359 55.3455 16.2254 55.0247 16.2044C54.7142 16.1939 54.3934 16.1729 54.0622 16.1414C53.7414 16.0995 53.4361 16.0627 53.1463 16.0312C52.8566 15.9892 52.5978 15.942 52.3701 15.8895V14.3624C52.6599 14.3834 52.9963 14.4044 53.3792 14.4254C53.7724 14.4463 54.1812 14.4621 54.6055 14.4726C55.0298 14.4831 55.4386 14.4883 55.8319 14.4883C56.2458 14.4883 56.6132 14.4516 56.934 14.3781C57.2549 14.2942 57.5032 14.1525 57.6792 13.953C57.8551 13.7536 57.9431 13.4702 57.9431 13.1029V12.5518C57.9431 12.1425 57.8292 11.8276 57.6016 11.6072C57.3739 11.3868 57.0375 11.2766 56.5925 11.2766H55.5214C54.4762 11.2766 53.6689 11.0457 53.0998 10.5838C52.5409 10.122 52.2615 9.32958 52.2615 8.20651V7.60824C52.2615 6.48518 52.5668 5.67699 53.1774 5.18369C53.7983 4.67988 54.6831 4.42798 55.8319 4.42798C56.2251 4.42798 56.6288 4.44897 57.0427 4.49095C57.467 4.52244 57.8706 4.56443 58.2535 4.6169C58.6365 4.66938 58.9624 4.72711 59.2315 4.79009V6.31725C58.7762 6.28576 58.2535 6.25427 57.6637 6.22278C57.0841 6.19129 56.546 6.17555 56.0492 6.17555C55.6559 6.17555 55.3093 6.21753 55.0091 6.3015C54.709 6.38547 54.4813 6.53766 54.3261 6.75807C54.1709 6.96799 54.0933 7.28287 54.0933 7.70271V8.08056C54.0933 8.57387 54.2226 8.92024 54.4813 9.11966C54.7504 9.31908 55.1333 9.41879 55.6301 9.41879H56.8254C57.4981 9.41879 58.0517 9.54474 58.4864 9.79665C58.9211 10.0485 59.2419 10.3949 59.4488 10.8357C59.6662 11.2661 59.7748 11.7594 59.7748 12.3157V13.0556C59.7748 13.9163 59.6093 14.5775 59.2781 15.0394C58.9469 15.5012 58.4916 15.8161 57.912 15.984C57.3325 16.1519 56.6702 16.2359 55.925 16.2359Z" fill="#525E72"/>
<path d="M61.6215 16.1414V4.52244H63.5309V16.1414H61.6215Z" fill="#525E72"/>
<path d="M65.6691 16.1414V4.52244H70.0468C71.1231 4.52244 71.9199 4.77959 72.4374 5.29389C72.9548 5.80819 73.2136 6.55865 73.2136 7.54527C73.2136 8.00709 73.1411 8.41643 72.9962 8.77329C72.8617 9.11966 72.6754 9.4083 72.4374 9.63921C72.1994 9.85962 71.9199 10.0118 71.5991 10.0958C71.8371 10.1588 72.07 10.2585 72.2977 10.3949C72.5357 10.5209 72.753 10.6993 72.9497 10.9302C73.1463 11.1611 73.3015 11.4445 73.4154 11.7804C73.5292 12.1058 73.5861 12.4889 73.5861 12.9297C73.5861 13.7274 73.4516 14.3624 73.1825 14.8347C72.9238 15.2965 72.5409 15.6324 72.0338 15.8423C71.537 16.0417 70.9368 16.1414 70.233 16.1414H65.6691ZM67.5785 14.3939H70.171C70.4918 14.3939 70.7712 14.3361 71.0092 14.2207C71.2472 14.1052 71.4284 13.9215 71.5525 13.6696C71.6871 13.4072 71.7543 13.0504 71.7543 12.5991C71.7543 12.2422 71.6871 11.9431 71.5525 11.7017C71.418 11.4603 71.2317 11.2766 70.9937 11.1506C70.7557 11.0142 70.4814 10.946 70.171 10.946H67.5785V14.3939ZM67.5785 9.43454H70.0778C70.4607 9.43454 70.7712 9.29284 71.0092 9.00945C71.2472 8.71557 71.3714 8.33246 71.3818 7.86015C71.3921 7.26188 71.2628 6.84729 70.9937 6.61638C70.735 6.38547 70.4142 6.27001 70.0312 6.27001H67.5785V9.43454Z" fill="#525E72"/>
<path d="M79.5027 16.2202C78.8715 16.2202 78.2867 16.1677 77.7486 16.0627C77.2104 15.9473 76.7447 15.7531 76.3515 15.4802C75.9582 15.1968 75.6529 14.8137 75.4356 14.3309C75.2286 13.8376 75.1251 13.2078 75.1251 12.4416V4.52244H77.0345V12.4416C77.0345 12.9454 77.1328 13.3495 77.3295 13.6539C77.5261 13.9478 77.8055 14.1577 78.1677 14.2837C78.5403 14.4096 78.9853 14.4726 79.5027 14.4726C80.0202 14.4726 80.46 14.4096 80.8222 14.2837C81.1948 14.1577 81.4794 13.9478 81.676 13.6539C81.8727 13.3495 81.971 12.9454 81.971 12.4416V4.52244H83.8804V12.4416C83.8804 13.2078 83.7717 13.8376 83.5544 14.3309C83.3474 14.8137 83.0473 15.1968 82.654 15.4802C82.2607 15.7531 81.795 15.9473 81.2569 16.0627C80.7291 16.1677 80.1444 16.2202 79.5027 16.2202Z" fill="#525E72"/>
<path d="M88.4231 16.1414C87.885 16.1414 87.4193 16.0575 87.026 15.8895C86.6431 15.7216 86.3534 15.4487 86.1567 15.0709C85.9601 14.6825 85.8618 14.1734 85.8618 13.5437V4.52244H87.7712V13.2288C87.7712 13.5227 87.8229 13.7589 87.9264 13.9373C88.0299 14.1052 88.1644 14.2207 88.33 14.2837C88.5059 14.3466 88.6974 14.3781 88.9044 14.3781H92.7076V16.1414H88.4231Z" fill="#525E72"/>
<path d="M96.7155 16.1414C96.1773 16.1414 95.7116 16.0575 95.3184 15.8895C94.9354 15.7216 94.6457 15.4487 94.4491 15.0709C94.2524 14.6825 94.1541 14.1734 94.1541 13.5437V4.52244H96.0635V13.2288C96.0635 13.5227 96.1152 13.7589 96.2187 13.9373C96.3222 14.1052 96.4567 14.2207 96.6223 14.2837C96.7983 14.3466 96.9897 14.3781 97.1967 14.3781H101V16.1414H96.7155Z" fill="#525E72"/>
</svg>

<svg xmlns="http://www.w3.org/2000/svg" width="103" height="18" fill="none" viewBox="0 0 103 18"><path fill="#fff" d="M1 3.69A3.69 3.69 0 0 1 4.69 0h10.332a3.69 3.69 0 0 1 3.69 3.69v10.332a3.69 3.69 0 0 1-3.69 3.69H4.69A3.69 3.69 0 0 1 1 14.022z"/><path fill="#ff5722" d="M4.542 0A3.54 3.54 0 0 0 1 3.542v1.329h4.348c.429 0 .81.274.945.681l1.987 5.96h3.152l1.986-5.96a1 1 0 0 1 .946-.681h4.348V3.542A3.54 3.54 0 0 0 15.169 0z"/><path fill="#ff5722" d="M18.712 6.642h-3.79l-1.987 5.96a1 1 0 0 1-.945.682H7.722a1 1 0 0 1-.945-.681L4.79 6.642H1v7.527a3.54 3.54 0 0 0 3.542 3.543H15.17a3.54 3.54 0 0 0 3.542-3.543z"/><path fill="#525e72" d="M26.803 16.236q-.42 0-.9-.032a16 16 0 0 1-.962-.063q-.482-.062-.916-.11a10 10 0 0 1-.776-.141v-1.528q.435.031 1.009.063.59.032 1.226.048.636.015 1.226.015.622 0 1.102-.11.482-.126.745-.425.265-.3.264-.85v-.551q0-.614-.341-.945t-1.01-.33H26.4q-1.568 0-2.422-.693-.838-.693-.838-2.377v-.599q0-1.685.916-2.424.93-.756 2.654-.756.59 0 1.211.063.636.046 1.21.126.576.078.979.173v1.527a101 101 0 0 0-1.568-.094 30 30 0 0 0-1.614-.047q-.59 0-1.04.125-.45.126-.684.457-.232.315-.232.945v.378q0 .74.388 1.039.404.3 1.148.299h1.196q1.009 0 1.66.378.652.378.963 1.039.326.645.326 1.48v.74q0 1.29-.497 1.983-.496.693-1.366.945-.869.252-1.987.252M35.154 16.22q-.372 0-.838-.079a2.5 2.5 0 0 1-.87-.299 1.9 1.9 0 0 1-.682-.74q-.264-.487-.264-1.338V7.057q0-.74.217-1.228a2 2 0 0 1 .575-.787q.372-.283.807-.394.45-.126.885-.126 1.086 0 1.956.032.87.03 1.583.063.73.03 1.35.079v1.621h-4.33q-.528 0-.839.268-.294.267-.295.834v2.063l4.766.11v1.527l-4.766.11v2q0 .472.156.724a.9.9 0 0 0 .419.346 1.6 1.6 0 0 0 .543.095h4.346v1.621q-.683.065-1.49.11-.807.032-1.645.048-.823.031-1.584.047M41.841 16.141V4.522h1.537l5.216 8.298V4.522h1.925v11.62h-1.537l-5.216-8.298v8.297zM55.925 16.236q-.42 0-.9-.032a16 16 0 0 1-.963-.063q-.48-.062-.916-.11a10 10 0 0 1-.776-.141v-1.528q.434.031 1.01.063.589.032 1.225.048.637.015 1.227.015.62 0 1.102-.11.481-.126.745-.425.264-.3.264-.85v-.551q0-.614-.341-.945-.342-.33-1.01-.33h-1.07q-1.569 0-2.422-.693-.84-.693-.839-2.377v-.599q0-1.685.916-2.424.931-.756 2.655-.756a12 12 0 0 1 1.21.063q.637.046 1.212.126.574.078.977.173v1.527q-.682-.047-1.567-.094a30 30 0 0 0-1.615-.047q-.59 0-1.04.125-.45.126-.683.457-.233.315-.233.945v.378q0 .74.388 1.039.404.3 1.15.299h1.194q1.01 0 1.661.378.653.378.963 1.039.326.645.326 1.48v.74q0 1.29-.497 1.983-.496.693-1.366.945t-1.987.252M61.622 16.141V4.522h1.909v11.62zM65.67 16.141V4.522h4.377q1.614 0 2.39.772.777.772.777 2.251 0 .693-.218 1.228-.2.52-.559.866-.357.33-.838.457.357.094.699.299.357.189.652.535t.465.85q.171.489.171 1.15 0 1.196-.403 1.905a2.27 2.27 0 0 1-1.15 1.007q-.744.3-1.8.3zm1.909-1.747h2.592q.48 0 .838-.173.358-.174.543-.551.202-.395.202-1.07 0-.537-.202-.898a1.36 1.36 0 0 0-.558-.551 1.6 1.6 0 0 0-.823-.205h-2.593zm0-4.96h2.499q.574 0 .931-.425.357-.44.373-1.149.014-.897-.388-1.244-.389-.345-.963-.346h-2.453zM79.503 16.22a9 9 0 0 1-1.754-.157 3.8 3.8 0 0 1-1.397-.583 2.8 2.8 0 0 1-.916-1.15q-.31-.739-.31-1.888v-7.92h1.908v7.92q0 .755.295 1.212.296.441.839.63.558.189 1.335.189.775 0 1.32-.19a1.6 1.6 0 0 0 .853-.63q.295-.456.295-1.211v-7.92h1.91v7.92q0 1.15-.327 1.889a2.7 2.7 0 0 1-.9 1.15 3.8 3.8 0 0 1-1.397.582 9 9 0 0 1-1.754.157M88.423 16.141q-.807 0-1.397-.251a1.75 1.75 0 0 1-.87-.82q-.294-.582-.294-1.526V4.522h1.91v8.707q-.001.441.154.708a.8.8 0 0 0 .404.347q.264.094.574.094h3.804v1.763zM96.716 16.141q-.808 0-1.398-.251a1.75 1.75 0 0 1-.869-.82q-.295-.582-.295-1.526V4.522h1.91v8.707q0 .441.155.708a.8.8 0 0 0 .403.347q.264.094.575.094H101v1.763z"/></svg>
